packages/sources/icons/src/vitamix/history-fill.svg

<svg width="16" height="16" viewBox="0 0 16 16" xmlns="http://www.w3.org/2000/svg"><path d="M8.00004 1.33331C11.682 1.33331 14.6667 4.31798 14.6667 7.99998C14.6667 11.682 11.682 14.6666 8.00004 14.6666C4.31804 14.6666 1.33337 11.682 1.33337 7.99998H2.66671C2.66671 10.9453 5.05471 13.3333 8.00004 13.3333C10.9454 13.3333 13.3334 10.9453 13.3334 7.99998C13.3334 5.05465 10.9454 2.66665 8.00004 2.66665C6.35737 2.66665 4.88804 3.40931 3.91004 4.57665L5.33337 5.99998H1.33337V1.99998L2.96471 3.63065C4.18671 2.22398 5.98937 1.33331 8.00004 1.33331ZM8.66671 4.66665V7.72331L10.8287 9.88531L9.88537 10.8286L7.33337 8.27531V4.66665H8.66671Z"/></svg>

<svg width="16" height="16" xmlns="http://www.w3.org/2000/svg"><path d="M8 1.333A6.667 6.667 0 1 1 1.333 8h1.334A5.334 5.334 0 1 0 3.91 4.577L5.333 6h-4V2l1.632 1.63A6.653 6.653 0 0 1 8 1.334Zm.667 3.334v3.056l2.162 2.162-.944.944-2.552-2.554V4.667h1.334Z"/></svg>
